lib/logo_tmp/nrk-logo-nrk-sami-radio-title-below.svg

<svg width="97" height="36" viewBox="0 0 97 36" fill="none" xmlns="http://www.w3.org/2000/svg">
<path d="M0 15.0033V1.00453H4.59339V15.0033H0ZM10.8428 3.2325L13.4844 15.0033H8.45737L5.30307 1.00453H8.12254C8.76907 0.996136 9.39641 1.22405 9.88691 1.64538C10.3782 2.04903 10.7158 2.6094 10.8428 3.2325ZM14.1744 15.0033V1.00453H18.7678V15.0033H14.1744ZM22.2372 6.32804C21.7422 6.33286 21.2552 6.20336 20.828 5.95338C20.4064 5.70973 20.0563 5.35954 19.8127 4.93795C19.5624 4.51064 19.4329 4.02348 19.4378 3.52829C19.4321 3.03613 19.5618 2.55186 19.8127 2.12842C20.0589 1.71141 20.4086 1.36503 20.828 1.12286C21.2553 0.873175 21.7423 0.743689 22.2372 0.748203C22.7292 0.742904 23.2133 0.872505 23.6369 1.12286C24.0521 1.36715 24.3981 1.71324 24.6424 2.12842C24.893 2.55198 25.0226 3.03616 25.0172 3.52829C25.0218 4.02344 24.8923 4.51052 24.6424 4.93795C24.4007 5.35769 24.0542 5.70758 23.6369 5.95338C23.2133 6.20423 22.7289 6.33386 22.2366 6.32804H22.2372ZM25.7269 15.0033V1.00453H30.3207V15.0033H25.7269ZM36.136 8.65453C36.1489 8.66811 36.2475 8.82912 36.4317 9.13757C36.6159 9.44602 36.8558 9.84039 37.1513 10.3206C37.447 10.8006 37.759 11.3099 38.0874 11.8486C38.4157 12.3873 38.7247 12.8967 39.0143 13.3767C39.3028 13.8566 39.6313 14.3988 40 15.0033H34.9531C34.6375 14.4906 34.3515 14.0273 34.0952 13.6132C33.8389 13.1992 33.5665 12.7523 33.2778 12.2725C32.9884 11.7932 32.7024 11.3265 32.4196 10.8726C32.1368 10.4187 31.8938 10.0211 31.6905 9.67982C31.4863 9.33829 31.3449 9.10823 31.2663 8.98971C31.0713 8.69561 30.9559 8.35593 30.9315 8.00389C30.951 7.66601 31.0597 7.33939 31.2466 7.05722C31.3254 6.92577 31.47 6.69242 31.6803 6.35724C31.8906 6.02206 32.137 5.62448 32.4196 5.16443C32.7021 4.70438 32.9882 4.23446 33.2778 3.75469C33.5674 3.27492 33.8398 2.8247 34.0952 2.40408C34.3519 1.9839 34.6379 1.51727 34.9531 1.00421H40L36.0962 7.37267C35.9754 7.56175 35.9073 7.77966 35.8991 8.00389C35.9121 8.2393 35.9942 8.46563 36.1353 8.65453H36.136Z" fill="white"/>
<path d="M9.37033 29.4364C9.53341 29.9262 9.6112 30.4403 9.60033 30.9564C9.62289 31.6493 9.48245 32.3377 9.19033 32.9664C8.92515 33.4972 8.52512 33.9489 8.03033 34.2764C7.50015 34.6225 6.91006 34.8667 6.29033 34.9964C5.59046 35.1471 4.87623 35.2209 4.16033 35.2164C3.84033 35.2164 3.52367 35.2031 3.21033 35.1764C2.897 35.1497 2.58367 35.1131 2.27033 35.0664C1.94367 35.017 1.61988 34.9503 1.30033 34.8664C0.948285 34.7741 0.601168 34.664 0.260333 34.5364L0 32.5564C0.32 32.6764 0.656778 32.7932 1.01033 32.9067C1.36389 33.0203 1.72711 33.1169 2.1 33.1964C2.47289 33.2764 2.84622 33.3397 3.22 33.3864C3.57818 33.4323 3.93889 33.4557 4.3 33.4564C4.67155 33.4597 5.04276 33.4329 5.41 33.3764C5.71077 33.331 6.00364 33.2435 6.28 33.1164C6.52454 33.0029 6.74256 32.8394 6.92 32.6364C7.09673 32.4307 7.2325 32.1931 7.32 31.9364C7.41839 31.6399 7.46584 31.3288 7.46033 31.0164C7.46748 30.7228 7.4165 30.4306 7.31033 30.1567C7.21888 29.9293 7.07897 29.7246 6.90033 29.5567C6.71189 29.3868 6.49965 29.2453 6.27033 29.1367C6.00327 29.0093 5.72554 28.9056 5.44033 28.8267C5.13344 28.7405 4.80011 28.6572 4.44033 28.5767C3.99989 28.4839 3.56989 28.3705 3.15033 28.2367C2.7473 28.1106 2.35586 27.95 1.98033 27.7567C1.62607 27.5744 1.30223 27.3383 1.02033 27.0567C0.73535 26.7693 0.513905 26.4252 0.370333 26.0467C0.207031 25.595 0.129042 25.1169 0.140333 24.6367C0.124783 24.0164 0.251344 23.4007 0.510333 22.8367C0.752913 22.3348 1.11719 21.9016 1.57 21.5764C2.06153 21.2287 2.61468 20.9775 3.2 20.8364C3.88728 20.6693 4.59274 20.5887 5.3 20.5964C5.64667 20.5964 5.98656 20.6131 6.31967 20.6464C6.64884 20.6793 6.97607 20.7293 7.3 20.7964C7.62 20.8631 7.93656 20.9432 8.24967 21.0367C8.55736 21.1277 8.85553 21.2483 9.14 21.3967L8.86 23.1567C8.60707 23.0176 8.34265 22.9005 8.06967 22.8067C7.7783 22.7056 7.48109 22.6221 7.17967 22.5567C6.86942 22.4896 6.55573 22.4395 6.24 22.4067C5.92773 22.374 5.61398 22.3573 5.3 22.3567C4.95541 22.3547 4.61115 22.3781 4.27 22.4267C3.9831 22.4658 3.70347 22.5467 3.44 22.6667C3.20976 22.7737 2.99729 22.9154 2.81 23.0867C2.62925 23.2547 2.49199 23.464 2.41 23.6967C2.31927 23.9604 2.27528 24.2379 2.28 24.5167C2.27341 24.7859 2.31751 25.0539 2.41 25.3067C2.49311 25.5218 2.6269 25.7137 2.8 25.8661C2.98396 26.0268 3.18923 26.1614 3.41 26.2661C3.66681 26.388 3.93469 26.4851 4.21 26.5561C4.51 26.6361 4.83322 26.7161 5.17967 26.7961C5.633 26.8896 6.073 27.003 6.49967 27.1361C6.91609 27.2653 7.32095 27.4292 7.71 27.6261C8.081 27.8131 8.41882 28.0597 8.71 28.3561C9.00566 28.664 9.23086 29.0325 9.37 29.4361M20.96 33.7164C21.0758 33.7011 21.1898 33.6743 21.3003 33.6364L21.0803 34.9764C21.0054 35.0055 20.9284 35.0289 20.85 35.0464C20.763 35.0664 20.6667 35.0894 20.56 35.1164C20.4518 35.143 20.3415 35.1597 20.2303 35.1664C20.1167 35.1727 20 35.1764 19.88 35.1764C19.4898 35.1833 19.1022 35.1119 18.74 34.9664C18.4124 34.8316 18.1383 34.5926 17.96 34.2864C17.8555 34.1035 17.7823 33.9044 17.7433 33.6974C17.6198 33.844 17.4885 33.9839 17.35 34.1164C16.9855 34.4617 16.5578 34.7333 16.0903 34.9164C15.5494 35.1145 14.9762 35.2095 14.4003 35.1964C13.7856 35.2179 13.1758 35.0801 12.63 34.7964C12.1827 34.556 11.8146 34.1914 11.57 33.7464C11.3368 33.3133 11.2165 32.8283 11.2203 32.3364C11.2177 31.8121 11.3745 31.2995 11.67 30.8664C12.0187 30.3799 12.4921 29.9965 13.0403 29.7564C13.773 29.4353 14.5607 29.2587 15.3603 29.2364L17.698 29.0781L17.7 28.5764C17.7057 28.2359 17.6653 27.8961 17.58 27.5664C17.5106 27.299 17.3727 27.0543 17.18 26.8564C16.9633 26.6533 16.6984 26.5088 16.4103 26.4364C16.0152 26.335 15.6082 26.2879 15.2003 26.2964C14.9337 26.2964 14.6636 26.3064 14.39 26.3264C14.1115 26.3471 13.8343 26.3838 13.56 26.4364C13.28 26.4902 12.9901 26.5569 12.6903 26.6364C12.3906 26.716 12.0738 26.816 11.74 26.9364L11.9803 25.2364C12.3232 25.0998 12.6737 24.9829 13.03 24.8864C13.4144 24.7829 13.8054 24.7061 14.2003 24.6564C14.6181 24.6028 15.0388 24.5761 15.46 24.5764C15.9911 24.5706 16.5212 24.6243 17.0403 24.7364C17.4647 24.8269 17.8727 24.982 18.25 25.1964C18.5749 25.3829 18.8577 25.6348 19.0803 25.9361C19.3003 26.2445 19.4628 26.5902 19.56 26.9564C19.6707 27.3739 19.7246 27.8045 19.7203 28.2364L19.68 32.3564C19.6373 32.7243 19.7145 33.0961 19.9003 33.4164C19.9949 33.5286 20.1152 33.6163 20.2509 33.672C20.3867 33.7277 20.5339 33.7498 20.68 33.7364C20.7737 33.7355 20.8672 33.7288 20.96 33.7164ZM17.6823 32.5214L17.6913 30.5364H15.9403C15.4155 30.5222 14.891 30.576 14.38 30.6964C14.0529 30.7667 13.7579 30.9423 13.5403 31.1964C13.3521 31.4724 13.2606 31.8029 13.28 32.1364C13.2721 32.4132 13.3413 32.6867 13.48 32.9264C13.62 33.1525 13.8257 33.3304 14.0697 33.4364C14.3697 33.5643 14.6939 33.6257 15.02 33.6164C15.3052 33.6171 15.5899 33.5904 15.87 33.5364C16.1402 33.4842 16.4025 33.3967 16.65 33.2764C16.8985 33.1554 17.1332 33.0078 17.35 32.8364C17.47 32.7412 17.5815 32.6358 17.6833 32.5214M18.6203 19.8164H16.46L14.76 23.3964H16.32L18.6203 19.8164ZM37.0203 24.9964C36.4749 24.7003 35.8603 24.5553 35.24 24.5764C34.7018 24.5749 34.1675 24.6663 33.6603 24.8464C33.1451 25.0308 32.6599 25.2902 32.2203 25.6161C31.9711 25.8005 31.734 26.001 31.5107 26.2161C31.3057 25.7154 30.9443 25.2944 30.4803 25.0161C29.9283 24.7185 29.307 24.5736 28.6803 24.5961C28.1456 24.5962 27.6148 24.6874 27.1107 24.8657C26.5932 25.0479 26.1048 25.304 25.6607 25.6261C25.5167 25.7297 25.3777 25.8421 25.2403 25.9594V24.5964L23.2007 24.8964V34.9964H25.2403V27.3891C25.4807 27.2317 25.7312 27.0905 25.9903 26.9664C26.3077 26.8164 26.6395 26.6991 26.9807 26.6164C27.2946 26.5388 27.6166 26.4985 27.94 26.4964C28.237 26.4875 28.5328 26.5385 28.8097 26.6464C29.039 26.7434 29.2415 26.8944 29.4 27.0864C29.5737 27.3093 29.6934 27.5695 29.7497 27.8464C29.8278 28.2044 29.8648 28.5701 29.86 28.9364V34.9964H31.9V28.5164C31.9014 28.1338 31.8756 27.7516 31.8227 27.3727C32.054 27.2209 32.2934 27.0819 32.54 26.9564C32.8518 26.7993 33.1806 26.6785 33.52 26.5964C33.8407 26.5179 34.1695 26.4776 34.4997 26.4764C34.7935 26.4693 35.0859 26.5203 35.36 26.6264C35.5932 26.7215 35.7992 26.8726 35.96 27.0664C36.134 27.2892 36.2538 27.5494 36.31 27.8264C36.388 28.1844 36.4249 28.5501 36.42 28.9164V34.9964H38.46V28.4964C38.4859 27.74 38.3636 26.9859 38.1 26.2764C37.8927 25.7414 37.5127 25.2909 37.0203 24.9964ZM43.23 20.4064C43.0224 20.2795 42.7833 20.2137 42.54 20.2164C42.2937 20.2145 42.0516 20.2802 41.84 20.4064C41.6313 20.5284 41.4561 20.7002 41.33 20.9064C41.2031 21.114 41.1373 21.3531 41.14 21.5964C41.1395 21.8406 41.204 22.0805 41.3271 22.2914C41.4501 22.5024 41.6272 22.6767 41.84 22.7964C42.0536 22.9166 42.2949 22.9787 42.54 22.9764C42.782 22.9795 43.0204 22.9173 43.23 22.7964C43.4359 22.6775 43.6053 22.5046 43.72 22.2964C43.8402 22.0829 43.9023 21.8415 43.9 21.5964C43.9029 21.3544 43.8408 21.1161 43.72 20.9064C43.6014 20.7011 43.4328 20.5292 43.23 20.4064ZM41.48 34.9964H43.52V24.5964L41.48 24.8964V34.9964ZM55.54 24.7261C55.1659 24.8265 54.8086 24.9815 54.4797 25.1861C54.1386 25.3991 53.8233 25.6507 53.54 25.9361C53.4927 25.9834 53.4467 26.0361 53.3997 26.0861V24.5964L51.36 24.8964V34.9964H53.4V27.4404C53.5516 27.3345 53.7085 27.2364 53.87 27.1464C54.07 27.0361 54.2771 26.9392 54.49 26.8564C54.6964 26.7764 54.9064 26.7064 55.12 26.6464C55.3396 26.5853 55.5638 26.5418 55.7903 26.5164C56.0326 26.4898 56.2766 26.4831 56.52 26.4964L56.76 24.6161C56.3502 24.5869 55.9383 24.6241 55.5403 24.7261M67.3 33.7164C67.4156 33.7011 67.5294 33.6743 67.6397 33.6364L67.4197 34.9764C67.345 35.0056 67.2682 35.029 67.19 35.0464C67.103 35.0664 67.0063 35.0894 66.9 35.1164C66.7916 35.143 66.6811 35.1597 66.5697 35.1664C66.4567 35.1727 66.34 35.1764 66.22 35.1764C65.8298 35.1833 65.4421 35.1119 65.08 34.9664C64.7523 34.8316 64.4782 34.5927 64.3 34.2864C64.1954 34.1036 64.1221 33.9045 64.0833 33.6974C63.9596 33.8438 63.8283 33.9837 63.69 34.1164C63.3253 34.4616 62.8975 34.7332 62.43 34.9164C61.889 35.1145 61.3157 35.2095 60.7397 35.1964C60.1252 35.2178 59.5156 35.0801 58.97 34.7964C58.5227 34.5561 58.1545 34.1914 57.91 33.7464C57.6766 33.3133 57.5561 32.8284 57.5597 32.3364C57.5569 31.812 57.714 31.2993 58.01 30.8664C58.3583 30.3797 58.8316 29.9962 59.38 29.7564C60.1126 29.4352 60.9004 29.2586 61.7 29.2364L64.0377 29.0781L64.04 28.5764C64.0456 28.2359 64.0051 27.8961 63.9197 27.5664C63.8506 27.2989 63.7127 27.0541 63.5197 26.8564C63.3027 26.6533 63.0376 26.5088 62.7493 26.4364C62.3544 26.3349 61.9474 26.2878 61.5397 26.2964C61.273 26.2964 61.003 26.3064 60.7297 26.3264C60.4511 26.3471 60.174 26.3838 59.8997 26.4364C59.6197 26.4902 59.3296 26.5569 59.0293 26.6364C58.7291 26.716 58.4126 26.816 58.0797 26.9364L58.3193 25.2364C58.6625 25.0998 59.0132 24.9829 59.3697 24.8864C59.7539 24.7829 60.1448 24.706 60.5397 24.6564C60.9575 24.6028 61.3784 24.576 61.7997 24.5764C62.3307 24.5706 62.8606 24.6243 63.3797 24.7364C63.8042 24.8269 64.2122 24.9821 64.5897 25.1964C64.9145 25.3828 65.197 25.6347 65.4193 25.9361C65.6397 26.2445 65.8025 26.5901 65.9 26.9564C66.0103 27.374 66.064 27.8045 66.0597 28.2364L66.02 32.3564C65.9773 32.7242 66.0543 33.0959 66.2397 33.4164C66.3344 33.5286 66.4548 33.6162 66.5907 33.672C66.7265 33.7277 66.8738 33.7498 67.02 33.7364C67.1137 33.7354 67.2072 33.7288 67.3 33.7164ZM64.0223 32.5214L64.031 30.5364H62.2797C61.7551 30.5222 61.2308 30.576 60.72 30.6964C60.3864 30.7484 60.0857 30.9271 59.8808 31.1955C59.6758 31.4638 59.5824 31.8009 59.62 32.1364C59.6122 32.4132 59.6814 32.6867 59.82 32.9264C59.9604 33.1525 60.1663 33.3304 60.4103 33.4364C60.7103 33.5644 61.0344 33.6258 61.3603 33.6164C61.6455 33.6172 61.93 33.5904 62.21 33.5364C62.4803 33.4843 62.7425 33.3968 62.99 33.2764C63.2385 33.1554 63.4732 33.0079 63.69 32.8364C63.8099 32.7411 63.9214 32.6357 64.0233 32.5214M76.4797 20.1964L78.5193 19.9164V34.9964H76.86L76.6087 34.0717C76.459 34.1804 76.3087 34.2837 76.1593 34.3764C75.7274 34.6473 75.2595 34.856 74.7693 34.9964C74.2777 35.132 73.7697 35.1993 73.2597 35.1964C72.428 35.2197 71.6065 35.0083 70.8893 34.5864C70.2229 34.1727 69.694 33.5707 69.3697 32.8564C68.9975 32.0201 68.8163 31.1115 68.8393 30.1964C68.806 29.1364 69.0472 28.0858 69.5393 27.1464C69.9605 26.3638 70.5872 25.711 71.3519 25.2581C72.1166 24.8053 72.9903 24.5696 73.879 24.5764C74.3455 24.5726 74.8113 24.6161 75.269 24.7064C75.6607 24.7852 76.0454 24.8956 76.4193 25.0364C76.44 25.0444 76.459 25.0541 76.4793 25.0621L76.4797 20.1964ZM76.4797 32.7607V26.5964C76.375 26.5581 76.2673 26.5167 76.1697 26.4857C75.8658 26.388 75.5547 26.3145 75.2393 26.2657C74.9216 26.2183 74.6006 26.1949 74.2793 26.1957C73.6552 26.1787 73.0376 26.3271 72.4893 26.6257C71.9853 26.9171 71.5836 27.3572 71.3393 27.8857C71.0528 28.5371 70.9161 29.2445 70.9393 29.9557C70.9171 30.6501 71.0397 31.3414 71.2993 31.9857C71.5064 32.488 71.8714 32.9092 72.339 33.1857C72.8419 33.458 73.4077 33.5926 73.9793 33.5757C74.4693 33.5632 74.9532 33.4651 75.4093 33.2857C75.7812 33.1434 76.1394 32.9674 76.4793 32.7601M83.389 20.4064C83.1815 20.2795 82.9425 20.2137 82.6993 20.2164C82.453 20.2145 82.2109 20.2802 81.9993 20.4064C81.7908 20.5285 81.6157 20.7002 81.4897 20.9064C81.3626 21.1139 81.2968 21.3531 81.2997 21.5964C81.2974 21.8428 81.3632 22.085 81.4897 22.2964C81.6119 22.5058 81.7882 22.6784 82 22.7964C82.2136 22.9166 82.4549 22.9787 82.7 22.9764C82.9419 22.9795 83.1801 22.9173 83.3897 22.7964C83.5957 22.6777 83.7653 22.5047 83.88 22.2964C84.0001 22.0828 84.0622 21.8415 84.06 21.5964C84.0628 21.3545 84.0006 21.1162 83.88 20.9064C83.7613 20.7011 83.5927 20.529 83.3897 20.4064M81.6397 34.9964H83.68V24.5964L81.6397 24.8964V34.9964ZM96.46 29.7764C96.4849 30.7778 96.2544 31.769 95.7903 32.6567C95.3621 33.4512 94.7123 34.1042 93.92 34.5364C93.0714 34.9883 92.1213 35.2155 91.16 35.1964C90.2418 35.2161 89.3335 35.0028 88.52 34.5764C87.7642 34.1676 87.1531 33.5355 86.77 32.7664C86.3435 31.8853 86.1343 30.9149 86.16 29.9364C86.1349 28.9502 86.3585 27.9735 86.81 27.0964C87.2256 26.3146 87.8574 25.6689 88.63 25.2364C89.4715 24.806 90.4025 24.5799 91.3476 24.5764C92.2927 24.573 93.2254 24.7922 94.07 25.2164C94.8257 25.6319 95.4415 26.2616 95.84 27.0264C96.2698 27.8781 96.4828 28.8227 96.46 29.7764ZM94.34 29.8164C94.3454 29.314 94.2849 28.8131 94.16 28.3264C94.0549 27.9104 93.868 27.5195 93.6103 27.1764C93.3685 26.8609 93.0523 26.6101 92.69 26.4464C92.2762 26.2706 91.8295 26.1853 91.38 26.1964C90.8042 26.1805 90.2346 26.3186 89.73 26.5964C89.2581 26.8765 88.8844 27.2957 88.66 27.7964C88.3861 28.4335 88.2564 29.1233 88.28 29.8164C88.2582 30.5288 88.3877 31.2377 88.66 31.8964C88.8653 32.4118 89.2259 32.8504 89.6918 33.1515C90.1577 33.4525 90.7058 33.601 91.26 33.5764C91.8205 33.5865 92.3734 33.4449 92.86 33.1664C93.3442 32.873 93.7251 32.4361 93.9497 31.9164C94.2299 31.2528 94.3633 30.5364 94.34 29.8164Z" fill="white"/>
</svg>

<svg xmlns="http://www.w3.org/2000/svg" viewBox="0 0 97 36"><path fill="#fff" d="M0 15.003V1.005h4.593v13.998H0Zm10.843-11.77 2.641 11.77H8.457L5.303 1.005h2.82a2.655 2.655 0 0 1 1.764.64c.491.404.829.964.956 1.587Zm3.331 11.77V1.005h4.594v13.998h-4.594Zm8.063-8.675a2.737 2.737 0 0 1-1.409-.375 2.778 2.778 0 0 1-1.015-1.015 2.735 2.735 0 0 1-.375-1.41 2.685 2.685 0 0 1 .375-1.4 2.812 2.812 0 0 1 3.824-1.005c.415.244.761.59 1.005 1.005.251.424.38.908.375 1.4.005.495-.125.983-.375 1.41a2.8 2.8 0 0 1-1.005 1.015c-.424.251-.908.38-1.4.375Zm3.49 8.675V1.005h4.594v13.998h-4.594Zm10.409-6.348c.013.013.111.174.296.483.184.308.424.702.72 1.183a384.573 384.573 0 0 1 1.862 3.056c.289.48.617 1.022.986 1.626h-5.047l-.858-1.39c-.256-.414-.529-.86-.817-1.34-.29-.48-.576-.947-.858-1.4a71.236 71.236 0 0 1-.73-1.193 21.112 21.112 0 0 0-.424-.69 2.04 2.04 0 0 1-.334-.986c.019-.338.128-.665.315-.947.078-.131.223-.365.433-.7a216.7 216.7 0 0 0 1.598-2.603l.817-1.35.858-1.4H40l-3.904 6.369c-.12.189-.189.407-.197.63.013.236.095.463.236.652h.001ZM9.37 29.436c.163.49.241 1.004.23 1.52a4.428 4.428 0 0 1-.41 2.01c-.265.531-.665.983-1.16 1.31a5.09 5.09 0 0 1-1.74.72c-.7.151-1.414.225-2.13.22-.32 0-.636-.013-.95-.04a15.035 15.035 0 0 1-.94-.11 9.289 9.289 0 0 1-.97-.2c-.352-.092-.699-.202-1.04-.33L0 32.556c.32.12.657.237 1.01.35.354.114.717.21 1.09.29.373.08.746.144 1.12.19.358.046.719.07 1.08.07.372.004.743-.023 1.11-.08.3-.045.594-.133.87-.26.245-.113.463-.277.64-.48.177-.205.313-.443.4-.7.098-.296.146-.607.14-.92a2.229 2.229 0 0 0-.15-.86 1.687 1.687 0 0 0-.41-.6c-.188-.17-.4-.31-.63-.42a5.063 5.063 0 0 0-.83-.31 19.27 19.27 0 0 0-1-.25 13.2 13.2 0 0 1-1.29-.34 7.356 7.356 0 0 1-1.17-.48 3.853 3.853 0 0 1-.96-.7 2.89 2.89 0 0 1-.65-1.01 3.879 3.879 0 0 1-.23-1.41 4.069 4.069 0 0 1 .37-1.8 3.342 3.342 0 0 1 1.06-1.26 4.75 4.75 0 0 1 1.63-.74 8.497 8.497 0 0 1 2.1-.24c.347 0 .687.017 1.02.05.329.033.656.083.98.15.32.067.637.147.95.24.307.092.606.212.89.36l-.28 1.76a5.036 5.036 0 0 0-.79-.35 7.688 7.688 0 0 0-.89-.25 9.194 9.194 0 0 0-1.88-.2 7.014 7.014 0 0 0-1.03.07 2.97 2.97 0 0 0-.83.24c-.23.108-.443.25-.63.42-.18.169-.318.378-.4.61-.09.264-.135.542-.13.82-.007.27.038.538.13.79.083.216.217.408.39.56.184.16.39.295.61.4.257.122.525.22.8.29.3.08.623.16.97.24.453.094.893.207 1.32.34.416.13.82.293 1.21.49.371.187.709.434 1 .73.296.308.52.676.66 1.08m11.59 4.28a1.76 1.76 0 0 0 .34-.08l-.22 1.34c-.075.03-.152.053-.23.07-.087.02-.183.043-.29.07a1.846 1.846 0 0 1-.33.05c-.113.007-.23.01-.35.01a2.92 2.92 0 0 1-1.14-.21 1.613 1.613 0 0 1-.78-.68 1.894 1.894 0 0 1-.217-.589 5.351 5.351 0 0 1-.393.42 3.9 3.9 0 0 1-1.26.8 4.61 4.61 0 0 1-1.69.28 3.568 3.568 0 0 1-1.77-.4 2.63 2.63 0 0 1-1.06-1.05 2.927 2.927 0 0 1-.35-1.41 2.585 2.585 0 0 1 .45-1.47 3.33 3.33 0 0 1 1.37-1.11 6.211 6.211 0 0 1 2.32-.52l2.338-.159.002-.502a3.78 3.78 0 0 0-.12-1.01 1.59 1.59 0 0 0-.4-.71 1.749 1.749 0 0 0-.77-.42 4.49 4.49 0 0 0-1.21-.14c-.266 0-.536.01-.81.03-.279.021-.556.058-.83.11a11.55 11.55 0 0 0-1.82.5l.24-1.7a9.66 9.66 0 0 1 1.05-.35 8.66 8.66 0 0 1 1.17-.23c.418-.053.839-.08 1.26-.08a7.119 7.119 0 0 1 1.58.16c.425.09.833.246 1.21.46.325.187.608.439.83.74.22.308.383.654.48 1.02.11.418.165.849.16 1.28l-.04 4.12c-.043.368.035.74.22 1.06a.911.911 0 0 0 .78.32c.094 0 .187-.007.28-.02Zm-3.278-1.195.01-1.985H15.94a6.086 6.086 0 0 0-1.56.16c-.327.07-.622.246-.84.5-.188.276-.28.607-.26.94-.008.277.061.55.2.79.14.227.346.404.59.51.3.128.624.19.95.18.285.001.57-.026.85-.08.27-.052.533-.14.78-.26.248-.12.483-.268.7-.44.12-.095.231-.2.333-.315m.937-12.705h-2.16l-1.7 3.58h1.56l2.3-3.58Zm18.4 5.18a3.483 3.483 0 0 0-1.78-.42 4.682 4.682 0 0 0-1.58.27 5.57 5.57 0 0 0-1.44.77c-.249.184-.486.385-.71.6a2.507 2.507 0 0 0-1.03-1.2 3.526 3.526 0 0 0-1.8-.42 4.71 4.71 0 0 0-1.57.27 5.686 5.686 0 0 0-1.87 1.093v-1.363l-2.04.3v10.1h2.04V27.39c.24-.157.491-.299.75-.423.318-.15.65-.267.99-.35.315-.077.637-.117.96-.12.297-.008.593.043.87.15.229.097.431.248.59.44.174.223.293.484.35.76.078.358.115.724.11 1.09v6.06h2.04v-6.48a8.058 8.058 0 0 0-.077-1.143c.231-.152.47-.291.717-.417.312-.157.64-.277.98-.36.32-.078.65-.118.98-.12.294-.007.586.044.86.15.233.095.44.247.6.44.174.223.294.483.35.76.078.358.115.724.11 1.09v6.08h2.04v-6.5a5.804 5.804 0 0 0-.36-2.22 2.576 2.576 0 0 0-1.08-1.28Zm6.21-4.59a1.295 1.295 0 0 0-.69-.19 1.346 1.346 0 0 0-.7.19 1.464 1.464 0 0 0-.51.5 1.373 1.373 0 0 0 .51 1.89 1.4 1.4 0 0 0 .7.18c.242.004.48-.059.69-.18.206-.119.375-.291.49-.5a1.4 1.4 0 0 0 .18-.7 1.35 1.35 0 0 0-.18-.69 1.408 1.408 0 0 0-.49-.5Zm-1.75 14.59h2.04v-10.4l-2.04.3v10.1Zm14.06-10.27c-.374.1-.731.256-1.06.46a5.219 5.219 0 0 0-.94.75c-.047.047-.093.1-.14.15v-1.49l-2.04.3v10.1h2.04V27.44a5.147 5.147 0 0 1 1.09-.584c.206-.08.416-.15.63-.21a4.28 4.28 0 0 1 1.4-.15l.24-1.88a3.82 3.82 0 0 0-1.22.11m11.76 8.99c.116-.015.23-.042.34-.08l-.22 1.34c-.075.03-.152.053-.23.07a13 13 0 0 0-.29.07 1.852 1.852 0 0 1-.33.05c-.113.007-.23.01-.35.01a2.92 2.92 0 0 1-1.14-.21 1.612 1.612 0 0 1-.78-.68 1.885 1.885 0 0 1-.217-.589 5.502 5.502 0 0 1-.393.42 3.906 3.906 0 0 1-1.26.8 4.61 4.61 0 0 1-1.69.28 3.567 3.567 0 0 1-1.77-.4 2.63 2.63 0 0 1-1.06-1.05 2.927 2.927 0 0 1-.35-1.41 2.58 2.58 0 0 1 .45-1.47 3.32 3.32 0 0 1 1.37-1.11 6.207 6.207 0 0 1 2.32-.52l2.338-.159.002-.502a3.78 3.78 0 0 0-.12-1.01 1.583 1.583 0 0 0-.4-.71 1.752 1.752 0 0 0-.77-.42 4.48 4.48 0 0 0-1.21-.14c-.267 0-.537.01-.81.03-.279.021-.556.058-.83.11-.28.054-.57.12-.87.2-.3.08-.617.18-.95.3l.24-1.7a9.68 9.68 0 0 1 1.05-.35c.384-.103.775-.18 1.17-.23a9.83 9.83 0 0 1 1.26-.08 7.117 7.117 0 0 1 1.58.16c.424.09.832.246 1.21.46.325.187.607.439.83.74.22.308.382.654.48 1.02.11.418.164.849.16 1.28l-.04 4.12c-.043.368.034.74.22 1.06a.913.913 0 0 0 .78.32 2.3 2.3 0 0 0 .28-.02Zm-3.278-1.195.009-1.985H62.28a6.081 6.081 0 0 0-1.56.16 1.31 1.31 0 0 0-1.1 1.44c-.008.277.061.55.2.79.14.227.346.404.59.51.3.128.624.19.95.18.285.001.57-.026.85-.08.27-.052.532-.14.78-.26s.483-.268.7-.44c.12-.095.231-.2.333-.315M76.48 20.196l2.04-.28v15.08h-1.66l-.251-.924c-.15.108-.3.212-.45.304-.432.271-.9.48-1.39.62-.491.136-1 .203-1.51.2a4.43 4.43 0 0 1-2.37-.61 3.966 3.966 0 0 1-1.52-1.73 6.161 6.161 0 0 1-.53-2.66 6.156 6.156 0 0 1 .7-3.05 4.886 4.886 0 0 1 4.34-2.57c.466-.003.932.04 1.39.13.392.08.776.19 1.15.33.021.008.04.018.06.026v-4.866Zm0 12.565v-6.165c-.105-.038-.213-.08-.31-.11a6.075 6.075 0 0 0-1.89-.29 3.541 3.541 0 0 0-1.79.43 2.824 2.824 0 0 0-1.15 1.26 4.756 4.756 0 0 0-.4 2.07c-.023.694.1 1.385.36 2.03.206.502.571.923 1.039 1.2a3.244 3.244 0 0 0 1.64.39c.49-.013.974-.11 1.43-.29.372-.143.73-.319 1.07-.526m6.91-12.354a1.294 1.294 0 0 0-.69-.19 1.346 1.346 0 0 0-.7.19 1.464 1.464 0 0 0-.51.5 1.291 1.291 0 0 0-.19.69c-.002.247.064.489.19.7.123.21.3.382.511.5a1.4 1.4 0 0 0 .7.18c.242.004.48-.059.69-.18.206-.118.375-.291.49-.5.12-.213.182-.454.18-.7.003-.241-.06-.48-.18-.69a1.406 1.406 0 0 0-.49-.5m-1.75 14.59h2.04v-10.4l-2.04.3v10.1Zm14.82-5.22a5.9 5.9 0 0 1-.67 2.88 4.66 4.66 0 0 1-1.87 1.88 5.634 5.634 0 0 1-2.76.66 5.436 5.436 0 0 1-2.64-.62 4.173 4.173 0 0 1-1.75-1.81 6.126 6.126 0 0 1-.61-2.83 5.879 5.879 0 0 1 .65-2.84 4.613 4.613 0 0 1 1.82-1.86 6.017 6.017 0 0 1 5.44-.02 4.37 4.37 0 0 1 1.77 1.81c.43.852.643 1.797.62 2.75Zm-2.12.04a5.746 5.746 0 0 0-.18-1.49 3.234 3.234 0 0 0-.55-1.15 2.41 2.41 0 0 0-.92-.73 3.151 3.151 0 0 0-1.31-.25 3.236 3.236 0 0 0-1.65.4c-.472.28-.846.7-1.07 1.2a4.709 4.709 0 0 0-.38 2.02 5.04 5.04 0 0 0 .38 2.08 2.671 2.671 0 0 0 2.6 1.68c.56.01 1.113-.131 1.6-.41.484-.293.865-.73 1.09-1.25.28-.663.413-1.38.39-2.1Z"/></svg>
